flaticon/travel/hotel.svg

<svg xmlns="http://www.w3.org/2000/svg" width="32" height="32" viewBox="0 0 24 24">
    <path d="M8 4.800781L11.601562 4.800781 11.601562 2 8 2zM8.800781 2.800781L10.800781 2.800781 10.800781 4 8.800781 4zM12.398438 4.800781L16 4.800781 16 2 12.398438 2zM13.199219 2.800781L15.199219 2.800781 15.199219 4 13.199219 4zM18.398438 6.398438L22.398438 6.398438 22.398438 3.601562 18.398438 3.601562zM19.199219 4.398438L21.601562 4.398438 21.601562 5.601562 19.199219 5.601562zM18.398438 10L22.398438 10 22.398438 7.199219 18.398438 7.199219zM19.199219 8L21.601562 8 21.601562 9.199219 19.199219 9.199219zM5.601562 3.601562L1.601562 3.601562 1.601562 6.398438 5.601562 6.398438zM4.800781 5.601562L2.398438 5.601562 2.398438 4.398438 4.800781 4.398438zM5.601562 7.199219L1.601562 7.199219 1.601562 10 5.601562 10zM4.800781 9.199219L2.398438 9.199219 2.398438 8 4.800781 8zM8 8.398438L11.601562 8.398438 11.601562 5.601562 8 5.601562zM8.800781 6.398438L10.800781 6.398438 10.800781 7.601562 8.800781 7.601562zM12.398438 8.398438L16 8.398438 16 5.601562 12.398438 5.601562zM13.199219 6.398438L15.199219 6.398438 15.199219 7.601562 13.199219 7.601562zM8 12L11.601562 12 11.601562 9.199219 8 9.199219zM8.800781 10L10.800781 10 10.800781 11.199219 8.800781 11.199219zM12.398438 12L16 12 16 9.199219 12.398438 9.199219zM13.199219 10L15.199219 10 15.199219 11.199219 13.199219 11.199219zM13.199219 10"/>
    <path d="M 17.601562 1.199219 L 17.601562 0 L 6.398438 0 L 6.398438 1.199219 L 0 1.199219 L 0 15.199219 C 0 17.050781 1.402344 18.578125 3.199219 18.777344 L 3.199219 23.601562 C 3.199219 23.820312 3.378906 24 3.601562 24 C 3.820312 24 4 23.820312 4 23.601562 L 4 18.777344 C 4.96875 18.667969 5.820312 18.175781 6.398438 17.457031 L 6.398438 19.199219 L 4.800781 19.199219 C 4.578125 19.199219 4.398438 19.378906 4.398438 19.601562 C 4.398438 19.820312 4.578125 20 4.800781 20 L 9.511719 20 L 8.808594 23.523438 C 8.785156 23.640625 8.8125 23.761719 8.890625 23.855469 C 8.96875 23.945312 9.078125 24 9.199219 24 L 14.800781 24 C 14.921875 24 15.03125 23.945312 15.109375 23.855469 C 15.183594 23.761719 15.214844 23.640625 15.191406 23.523438 L 14.488281 20 L 19.199219 20 C 19.421875 20 19.601562 19.820312 19.601562 19.601562 C 19.601562 19.378906 19.421875 19.199219 19.199219 19.199219 L 17.601562 19.199219 L 17.601562 17.457031 C 18.179688 18.175781 19.03125 18.667969 20 18.777344 L 20 23.601562 C 20 23.820312 20.179688 24 20.398438 24 C 20.621094 24 20.800781 23.820312 20.800781 23.601562 L 20.800781 18.777344 C 22.597656 18.578125 24 17.050781 24 15.199219 L 24 1.199219 Z M 0.800781 12.941406 L 0.800781 2 L 6.398438 2 L 6.398438 12.941406 C 6.394531 12.933594 6.390625 12.929688 6.386719 12.925781 C 6.308594 12.832031 6.226562 12.738281 6.140625 12.652344 C 6.125 12.636719 6.109375 12.625 6.09375 12.609375 C 6.019531 12.539062 5.945312 12.46875 5.863281 12.40625 C 5.828125 12.375 5.792969 12.351562 5.757812 12.324219 C 5.695312 12.277344 5.628906 12.230469 5.5625 12.1875 C 5.519531 12.160156 5.476562 12.132812 5.4375 12.109375 C 5.371094 12.070312 5.304688 12.03125 5.238281 11.996094 C 5.191406 11.972656 5.144531 11.953125 5.097656 11.929688 C 5.03125 11.898438 4.960938 11.871094 4.890625 11.84375 C 4.84375 11.824219 4.796875 11.804688 4.746094 11.789062 C 4.671875 11.765625 4.597656 11.742188 4.519531 11.722656 C 4.472656 11.710938 4.425781 11.695312 4.378906 11.6875 C 4.292969 11.667969 4.207031 11.652344 4.121094 11.640625 C 4.078125 11.636719 4.039062 11.625 3.996094 11.621094 C 3.863281 11.609375 3.734375 11.601562 3.601562 11.601562 C 3.46875 11.601562 3.335938 11.609375 3.207031 11.621094 C 3.164062 11.628906 3.121094 11.636719 3.078125 11.640625 C 2.992188 11.65625 2.90625 11.667969 2.824219 11.6875 C 2.773438 11.699219 2.726562 11.710938 2.679688 11.722656 C 2.601562 11.742188 2.527344 11.765625 2.453125 11.789062 C 2.40625 11.808594 2.359375 11.824219 2.308594 11.84375 C 2.238281 11.871094 2.167969 11.898438 2.101562 11.929688 C 2.054688 11.953125 2.007812 11.976562 1.960938 12 C 1.894531 12.03125 1.828125 12.070312 1.765625 12.109375 C 1.722656 12.136719 1.679688 12.160156 1.636719 12.1875 C 1.570312 12.230469 1.507812 12.277344 1.441406 12.328125 C 1.40625 12.351562 1.371094 12.378906 1.335938 12.40625 C 1.257812 12.46875 1.179688 12.539062 1.105469 12.609375 C 1.089844 12.625 1.074219 12.636719 1.058594 12.652344 C 0.972656 12.738281 0.890625 12.832031 0.8125 12.925781 C 0.808594 12.929688 0.804688 12.933594 0.800781 12.941406 Z M 4 17.96875 L 4 16.964844 L 5.082031 15.882812 C 5.238281 15.726562 5.238281 15.472656 5.082031 15.316406 C 4.925781 15.160156 4.671875 15.160156 4.515625 15.316406 L 3.601562 16.234375 L 2.683594 15.316406 C 2.527344 15.160156 2.273438 15.160156 2.117188 15.316406 C 1.960938 15.472656 1.960938 15.726562 2.117188 15.882812 L 3.199219 16.964844 L 3.199219 17.96875 C 1.84375 17.773438 0.800781 16.609375 0.800781 15.199219 C 0.800781 13.65625 2.054688 12.398438 3.601562 12.398438 C 5.144531 12.398438 6.398438 13.65625 6.398438 15.199219 C 6.398438 16.609375 5.355469 17.773438 4 17.96875 Z M 10 19.199219 L 9.199219 19.199219 L 9.199219 14.398438 L 11.601562 14.398438 L 11.601562 19.199219 Z M 14.3125 23.199219 L 9.6875 23.199219 L 10.328125 20 L 13.671875 20 Z M 14 19.199219 L 12.398438 19.199219 L 12.398438 14.398438 L 14.800781 14.398438 L 14.800781 19.199219 Z M 16.800781 19.199219 L 15.601562 19.199219 L 15.601562 14 C 15.601562 13.777344 15.421875 13.601562 15.199219 13.601562 L 8.800781 13.601562 C 8.578125 13.601562 8.398438 13.777344 8.398438 14 L 8.398438 19.199219 L 7.199219 19.199219 L 7.199219 0.800781 L 16.800781 0.800781 Z M 20.800781 17.96875 L 20.800781 16.964844 L 21.882812 15.882812 C 22.039062 15.726562 22.039062 15.472656 21.882812 15.316406 C 21.726562 15.160156 21.472656 15.160156 21.316406 15.316406 L 20.398438 16.234375 L 19.484375 15.316406 C 19.328125 15.160156 19.074219 15.160156 18.917969 15.316406 C 18.761719 15.472656 18.761719 15.726562 18.917969 15.882812 L 20 16.964844 L 20 17.96875 C 18.644531 17.773438 17.601562 16.609375 17.601562 15.199219 C 17.601562 13.65625 18.855469 12.398438 20.398438 12.398438 C 21.945312 12.398438 23.199219 13.65625 23.199219 15.199219 C 23.199219 16.609375 22.15625 17.773438 20.800781 17.96875 Z M 22.941406 12.652344 C 22.925781 12.636719 22.910156 12.625 22.894531 12.609375 C 22.820312 12.539062 22.742188 12.46875 22.664062 12.40625 C 22.628906 12.375 22.59375 12.351562 22.558594 12.324219 C 22.492188 12.277344 22.429688 12.230469 22.363281 12.1875 C 22.320312 12.160156 22.277344 12.132812 22.234375 12.109375 C 22.171875 12.070312 22.105469 12.03125 22.039062 11.996094 C 21.992188 11.972656 21.945312 11.953125 21.898438 11.929688 C 21.832031 11.898438 21.761719 11.871094 21.691406 11.84375 C 21.640625 11.824219 21.59375 11.804688 21.546875 11.789062 C 21.472656 11.765625 21.398438 11.742188 21.320312 11.722656 C 21.273438 11.710938 21.226562 11.695312 21.175781 11.6875 C 21.09375 11.667969 21.007812 11.652344 20.921875 11.640625 C 20.878906 11.636719 20.835938 11.625 20.792969 11.621094 C 20.664062 11.609375 20.53125 11.601562 20.398438 11.601562 C 20.265625 11.601562 20.136719 11.609375 20.003906 11.621094 C 19.960938 11.628906 19.921875 11.636719 19.878906 11.640625 C 19.792969 11.65625 19.707031 11.667969 19.625 11.6875 C 19.574219 11.699219 19.527344 11.710938 19.480469 11.722656 C 19.402344 11.742188 19.328125 11.765625 19.253906 11.789062 C 19.207031 11.808594 19.15625 11.824219 19.109375 11.84375 C 19.039062 11.871094 18.96875 11.898438 18.902344 11.929688 C 18.855469 11.953125 18.808594 11.976562 18.761719 12 C 18.695312 12.03125 18.628906 12.070312 18.5625 12.109375 C 18.523438 12.136719 18.480469 12.160156 18.4375 12.1875 C 18.371094 12.230469 18.304688 12.277344 18.242188 12.328125 C 18.207031 12.351562 18.171875 12.378906 18.136719 12.40625 C 18.058594 12.46875 17.980469 12.539062 17.90625 12.609375 C 17.890625 12.625 17.875 12.636719 17.859375 12.652344 C 17.773438 12.738281 17.691406 12.832031 17.613281 12.925781 C 17.609375 12.933594 17.605469 12.9375 17.601562 12.941406 L 17.601562 2 L 23.199219 2 L 23.199219 12.941406 C 23.195312 12.933594 23.191406 12.929688 23.1875 12.925781 C 23.109375 12.832031 23.027344 12.738281 22.941406 12.652344 Z M 22.941406 12.652344"/>
    <path d="M2.398438 19.199219L.398438 19.199219C.179688 19.199219 0 19.378906 0 19.601562 0 19.820312.179688 20 .398438 20L2.398438 20C2.621094 20 2.800781 19.820312 2.800781 19.601562 2.800781 19.378906 2.621094 19.199219 2.398438 19.199219zM23.601562 19.199219L21.601562 19.199219C21.378906 19.199219 21.199219 19.378906 21.199219 19.601562 21.199219 19.820312 21.378906 20 21.601562 20L23.601562 20C23.820312 20 24 19.820312 24 19.601562 24 19.378906 23.820312 19.199219 23.601562 19.199219zM23.601562 19.199219"/>
</svg>

<svg xmlns="http://www.w3.org/2000/svg" width="32" height="32" viewBox="0 0 24 24">
    <path d="M8 4.8h3.602V2H8zm.8-2h2V4h-2zm0 0M12.398 4.8H16V2h-3.602zm.801-2h2V4h-2zm0 0M18.398 6.398h4V3.602h-4zm.801-2h2.403v1.204h-2.403zm0 0M18.398 10h4V7.2h-4zm.801-2h2.403v1.2h-2.403zm0 0M5.602 3.602h-4v2.796h4zm-.801 2H2.398V4.398h2.403zm0 0M5.602 7.2h-4V10h4zm-.801 2H2.398V8h2.403zm0 0M8 8.398h3.602V5.602H8zm.8-2h2v1.204h-2zm0 0M12.398 8.398H16V5.602h-3.602zm.801-2h2v1.204h-2zm0 0M8 12h3.602V9.2H8zm.8-2h2v1.2h-2zm0 0M12.398 12H16V9.2h-3.602zm.801-2h2v1.2h-2zm0 0"/>
    <path d="M17.602 1.2V0H6.398v1.2H0v14a3.604 3.604 0 0 0 3.2 3.577v4.825a.401.401 0 0 0 .8 0v-4.825a3.594 3.594 0 0 0 2.398-1.32v1.742H4.801a.401.401 0 0 0 0 .8l4.71.001-.702 3.523a.394.394 0 0 0 .39.477h5.602c.12 0 .23-.055.308-.145a.407.407 0 0 0 .082-.332L14.488 20H19.2a.401.401 0 1 0 0-.8h-1.597v-1.743A3.594 3.594 0 0 0 20 18.777v4.825a.4.4 0 0 0 .8 0v-4.825A3.604 3.604 0 0 0 24 15.2v-14zM.8 12.94V2h5.597v10.941c-.003-.007-.007-.011-.011-.015a4.09 4.09 0 0 0-.246-.274c-.016-.015-.032-.027-.047-.043a2.855 2.855 0 0 0-.23-.203c-.036-.031-.071-.054-.106-.082a3.484 3.484 0 0 0-.196-.136 5.154 5.154 0 0 0-.324-.191c-.047-.024-.093-.044-.14-.067a3.281 3.281 0 0 0-.207-.086 1.582 1.582 0 0 0-.145-.055 3.835 3.835 0 0 0-.226-.066c-.047-.012-.094-.028-.141-.036a2.98 2.98 0 0 0-.258-.046c-.043-.004-.082-.016-.125-.02a4.446 4.446 0 0 0-.394-.02c-.133 0-.266.008-.395.02-.043.008-.086.016-.129.02-.086.015-.172.027-.254.046l-.144.036c-.078.02-.153.043-.227.066-.047.02-.094.035-.144.055-.07.027-.141.054-.207.086L1.96 12c-.066.031-.133.07-.195.11-.043.027-.086.05-.13.078-.066.042-.128.09-.195.14-.035.024-.07.05-.105.078a3.727 3.727 0 0 0-.23.203c-.016.016-.032.028-.047.043a4.09 4.09 0 0 0-.246.274c-.004.004-.008.008-.012.015zM4 17.97v-1.004l1.082-1.082a.4.4 0 0 0-.566-.567l-.914.918-.918-.918a.4.4 0 0 0-.567.567L3.2 16.965v1.004a2.8 2.8 0 1 1 .801 0zm6 1.23h-.8v-4.8h2.402v4.8zm4.313 4H9.686L10.329 20h3.344zm-.313-4h-1.602v-4.8h2.403v4.8zm2.8 0h-1.198V14a.398.398 0 0 0-.403-.398H8.801a.398.398 0 0 0-.403.398v5.2H7.2V.8h9.602zm4-1.23v-1.004l1.083-1.082a.4.4 0 0 0-.567-.567l-.918.918-.914-.918a.4.4 0 0 0-.566.567L20 16.965v1.004a2.8 2.8 0 0 1 .398-5.57 2.8 2.8 0 1 1 .402 5.57zm2.141-5.317l-.046-.043a3.727 3.727 0 0 0-.23-.203c-.036-.031-.071-.054-.106-.082-.067-.047-.13-.094-.196-.136-.043-.028-.086-.055-.129-.079a3.183 3.183 0 0 0-.195-.113c-.047-.023-.094-.043-.14-.066a3.282 3.282 0 0 0-.208-.086c-.05-.02-.097-.04-.144-.055-.074-.023-.149-.047-.227-.066-.047-.012-.093-.028-.144-.036a2.65 2.65 0 0 0-.254-.046c-.043-.004-.086-.016-.129-.02a4.374 4.374 0 0 0-.395-.02c-.132 0-.261.008-.394.02-.043.008-.082.016-.125.02-.086.015-.172.027-.254.046l-.145.036c-.078.02-.152.043-.226.066-.047.02-.098.035-.145.055-.07.027-.14.054-.207.086l-.14.07c-.067.031-.133.07-.2.11-.039.027-.082.05-.125.078a2.24 2.24 0 0 0-.195.14c-.035.024-.07.05-.105.078a3.727 3.727 0 0 0-.23.203c-.016.016-.032.028-.048.043a4.09 4.09 0 0 0-.257.29V2h5.597v10.941c-.004-.007-.008-.011-.012-.015a4.09 4.09 0 0 0-.246-.274zm0 0"/>
    <path d="M2.398 19.2h-2a.401.401 0 0 0 0 .8h2a.401.401 0 1 0 0-.8zm0 0M23.602 19.2h-2a.401.401 0 0 0 0 .8h2a.4.4 0 0 0 0-.8zm0 0"/>
</svg>
